X:224
T:Waterloo Waltz. CJF.224
R:Waltz
S:C.J.Fox MS, 1829/33, Beverley,E.Yorks.
B:Kidson Coll.Mitchell Lib.M1805
O:England
A:East Yorkshire
Z:vmp.P J Headford 2000 & 2008
M:3/8
L:1/16
Q:3/8=60
K:G
(Bc)|.d2(dgfg)|.B2(BGBd)|(dc)(cB)(ce)|(ed).d2 (Bc)|\
.d2(dgfg)|.B2(BGBd)|dcecAF|G4h:|!
|:(Bc)|(dg)(gfdf)|(ag).g2Bc|dggfdf|(ag).g2 Bc|\
.d2(dgfg)|.B2(BGBe)|dcecAF|G4:|!
|:FA|AB^cdef|.d2(dAdf)|.e2(edef)|d2A2 FG|\
AB^cdef|.d2(dAdf)|.e2(edef)|” D.C.”d4:|

